X: 14020
T: DOUG PROTSIK'S REEL
C: Bob McQuillen July'08
B: Bob's Note Book 14 #20
%R: reel
%D:2008
Z: 2020 John Chambers <jc:trillian.mit.edu>
M: C
L: 1/8
K: G
Bd \
| edBG DGBG | EGBd BGBd | edBG DGBd | gedB A2Bd |
| edBG EGBd | eged BGBA | GBdg edBe | dBAB G2  :|
|: Bd \
| gedB edBA | GBdg edBA | GBdB Gcec | BdBG A2BA |
| GBAG EDGB | dBdg edBd | g2ag egdB | AGAB G2  :|
%%begintext align
%% Every summer,
%% Doug Protsik hosts the Maine Fiddle Camp,
%% up in Montville, Maine. It's a beautiful place
%% in the woods, right by a pretty lake, and Doug
%% works real hard to make sure everybody
%% has a wonderful time.
%%endtext

%%sep 1 1 500

%%sep 1 1 500

